SVG_Azure_All/App Service Logs.svg

<?xml version="1.0" encoding="UTF-8" standalone="no"?>
<!-- Generated by Microsoft Visio, SVG Export App Service Logs.svg Page-1 -->

<svg
   xmlns:dc="http://purl.org/dc/elements/1.1/"
   xmlns:cc="http://creativecommons.org/ns#"
   xmlns:rdf="http://www.w3.org/1999/02/22-rdf-syntax-ns#"
   xmlns:svg="http://www.w3.org/2000/svg"
   xmlns="http://www.w3.org/2000/svg"
   xmlns:sodipodi="http://sodipodi.sourceforge.net/DTD/sodipodi-0.dtd"
   xmlns:inkscape="http://www.inkscape.org/namespaces/inkscape"
   width="0.66924655in"
   height="0.78754574in"
   viewBox="0 0 48.185637 56.703294"
   xml:space="preserve"
   class="st4"
   version="1.1"
   id="svg40"
   sodipodi:docname="App Service Logs.svg"
   style="font-size:12px;overflow:visible;color-interpolation-filters:sRGB;fill:none;fill-rule:evenodd;stroke-linecap:square;stroke-miterlimit:3"
   inkscape:version="0.92.5 (2060ec1f9f, 2020-04-08)"><metadata
   id="metadata44"><rdf:RDF><cc:Work
       rdf:about=""><dc:format>image/svg+xml</dc:format><dc:type
         rdf:resource="http://purl.org/dc/dcmitype/StillImage" /></cc:Work></rdf:RDF></metadata><sodipodi:namedview
   pagecolor="#ffffff"
   bordercolor="#666666"
   borderopacity="1"
   objecttolerance="10"
   gridtolerance="10"
   guidetolerance="10"
   inkscape:pageopacity="0"
   inkscape:pageshadow="2"
   inkscape:window-width="640"
   inkscape:window-height="480"
   id="namedview42"
   showgrid="false"
   inkscape:zoom="1.4191562"
   inkscape:cx="32.125998"
   inkscape:cy="37.791066"
   inkscape:window-x="0"
   inkscape:window-y="0"
   inkscape:window-maximized="0"
   inkscape:current-layer="svg40" />
	<style
   type="text/css"
   id="style2">
	<![CDATA[
		.st1 {fill:#a33a85;stroke:none;stroke-linecap:butt;stroke-width:34}
		.st2 {fill:#ffffff;stroke:none;stroke-linecap:butt;stroke-width:34}
		.st3 {fill:url(#grad0-10);stroke:none;stroke-linecap:butt;stroke-width:34}
		.st4 {fill:none;fill-rule:evenodd;font-size:12px;overflow:visible;stroke-linecap:square;stroke-miterlimit:3}
	]]>
	</style>

	<defs
   id="Patterns_And_Gradients">
		<linearGradient
   id="grad0-10"
   x1="0"
   y1="66.521402"
   x2="46.618507"
   y2="66.521402"
   gradientTransform="scale(0.90715126,1.102352)"
   gradientUnits="userSpaceOnUse">
			<stop
   offset="0"
   stop-color="#59285f"
   stop-opacity="1"
   id="stop4" />
			<stop
   offset="1"
   stop-color="#a33a85"
   stop-opacity="1"
   id="stop6" />
		</linearGradient>
	</defs>
	<g
   id="g38"
   transform="translate(-34.000142,-34.001007)">
		<title
   id="title10">Page-1</title>
		<g
   id="group9984-1"
   transform="translate(34,-34.0157)">
			<title
   id="title12">App Service Logs</title>
			<g
   id="group9985-2">
				<title
   id="title14">Sheet.9985</title>
				<g
   id="shape9986-3"
   transform="translate(0,-0.280315)">
					<title
   id="title16">Sheet.9986</title>
					<path
   d="m 0.07,73.68 4.11,-4.69 a 1.99744,1.95591 0 0 1 1.53,-0.68 h 39.46 a 2.75331,2.69606 0 0 1 3.01,2.42 2.62144,2.56693 0 0 1 0,0.34 v 48.26 a 1.92989,1.88976 0 0 1 -0.68,1.43 l -4.42,3.96 H 2.75 L 0,123.63 Z"
   class="st1"
   id="path18"
   inkscape:connector-curvature="0"
   style="fill:#a33a85;stroke:none;stroke-width:34;stroke-linecap:butt" />
				</g>
				<g
   id="shape9987-5"
   transform="translate(3.39661,-2.3622)">
					<title
   id="title21">Sheet.9987</title>
					<path
   d="m 0,75.75 2.52,-2.82 a 1.70796,1.67244 0 0 1 1.19,-0.6 h 37.01 a 1.76585,1.72913 0 0 1 1.77,1.74 v 45.86 a 1.7562,1.71969 0 0 1 -0.58,1.3 l -3.94,3.49 z"
   class="st2"
   id="path23"
   inkscape:connector-curvature="0"
   style="fill:#ffffff;stroke:none;stroke-width:34;stroke-linecap:butt" />
				</g>
				<g
   id="shape9988-7"
   transform="translate(0.0900617)">
					<title
   id="title26">Sheet.9988</title>
					<path
   d="M 41,73.33 H 0.21 A 0.205855,0.201575 -180 0 0 0.004145,73.531575 L 0,123.46 a 1.32841,1.30079 -180 0 0 1.33,1.26 H 41 a 1.2866,1.25984 -180 0 0 1.29,-1.26 V 74.64 A 1.32841,1.30079 -180 0 0 41,73.33 Z"
   class="st3"
   id="path28"
   inkscape:connector-curvature="0"
   style="fill:url(#grad0-10);stroke:none;stroke-width:34;stroke-linecap:butt" />
				</g>
				<g
   id="shape9989-11"
   transform="translate(6.24945,-13.2346)">
					<title
   id="title31">Sheet.9989</title>
					<path
   d="M 27.05,100.27 A 15.5935,15.2693 -180 0 0 5.21,97.33 l -0.19,0.18 a 15.5871,15.263 -180 0 0 9.7,27.21 15.4391,15.1181 -180 0 0 9.52,-3.2 15.6611,15.3354 -180 0 0 2.81,-21.25 z M 14.6,96.2 a 13.7473,13.4614 0 0 1 1.88,0.13 13.4514,13.1717 0 0 1 7.43,3.52 c -0.22,-0.18 -0.44,-0.38 -0.68,-0.54 a 29.032,28.4283 -180 0 0 -8.04,1.72 15.021,14.7087 -180 0 0 -1.55,0.76 37.5493,36.7685 0 0 1 -3.37,-4.89 13.461,13.1811 0 0 1 4.33,-0.7 z M 4.09,117.7 c -0.04,-0.04 -0.08,-0.07 -0.1,-0.11 a 13.5704,13.2882 0 0 1 0.03,-16.17 38.511,37.7102 -180 0 0 0.89,4.15 4.36156,4.27087 -180 0 0 0.46,7.24 24.9793,24.4598 -180 0 0 -1.28,4.89 z M 6.44,98.9 a 13.6218,13.3386 0 0 1 2.51,-1.43 41.0295,40.1764 -180 0 0 3.45,5.08 15.0853,14.7717 -180 0 0 -3.32,2.52 4.36799,4.27717 -180 0 0 -1.6,-0.32 4.02061,3.93701 -180 0 0 -0.53,0.05 41.3994,40.5386 0 0 1 -1.2,-5.23 C 5.98,99.34 6.18,99.1 6.44,98.9 Z m 16.55,21.04 a 13.5093,13.2283 0 0 1 -16.98,-0.31 35.2849,34.5512 0 0 1 1.8,-6.3 4.38407,4.29291 -180 0 0 0.69,-0.1 c 0.64,0.65 1.33,1.28 2.05,1.87 a 12.5733,12.3118 -180 0 0 2.91,1.73 2.93022,2.86929 -180 0 0 5.21,1.65 25.8445,25.3071 -180 0 0 5.55,0.32 12.5926,12.3307 0 0 1 -1.23,1.14 z m 2.87,-3.12 a 14.3037,14.0063 0 0 1 -2.5,0.08 20.5662,20.1386 0 0 1 -3.97,-0.4 2.97525,2.91339 -180 0 0 -5.12,-1.95 14.1911,13.8961 0 0 1 -3.55,-2.64 4.34869,4.25827 -180 0 0 0.41,-5.24 13.8309,13.5433 0 0 1 2.81,-2.16 34.677,33.9559 -180 0 0 5.69,4.82 2.99455,2.93228 -180 0 0 -0.13,0.63 3.0814,3.01732 -180 0 0 3.08,3.01 3.04601,2.98268 -180 0 0 2.02,-0.77 c 0.15,0.07 0.28,0.12 0.52,0.24 0,0 0.41,0.2 0.62,0.32 0.45,0.29 1.66,0.87 1.75,0.91 a 13.4192,13.1402 0 0 1 -1.63,3.15 z m 1.27,-5.14 a 9.24097,9.04882 -180 0 0 -0.62,-0.32 l -0.62,-0.31 -0.41,-0.25 a 3.03958,2.97638 -180 0 0 -4.99,-3.04 43.1009,42.2047 0 0 1 -4.85,-4.16 24.3553,23.8488 0 0 1 9.77,-2.18 l 0.03,0.04 a 13.5093,13.2283 0 0 1 2.41,10.62 c -0.19,-0.13 -0.58,-0.3 -0.72,-0.4 z"
   class="st2"
   id="path33"
   inkscape:connector-curvature="0"
   style="fill:#ffffff;stroke:none;stroke-width:34;stroke-linecap:butt" />
				</g>
			</g>
		</g>
	</g>
</svg>

<?xml version="1.0" encoding="UTF-8" standalone="no"?>
<!DOCTYPE svg PUBLIC "-//W3C//DTD SVG 1.1//EN" "http://www.w3.org/Graphics/SVG/1.1/DTD/svg11.dtd">
<!-- Generated by Microsoft Visio, SVG Export App Service Logs.svg Page-1 -->
<svg xmlns="http://www.w3.org/2000/svg" xmlns:xlink="http://www.w3.org/1999/xlink" xmlns:ev="http://www.w3.org/2001/xml-events"
		width="1.61374in" height="1.73225in" viewBox="0 0 116.189 124.722" xml:space="preserve" color-interpolation-filters="sRGB"
		class="st4">
	<style type="text/css">
	<![CDATA[
		.st1 {fill:#a33a85;stroke:none;stroke-linecap:butt;stroke-width:34}
		.st2 {fill:#ffffff;stroke:none;stroke-linecap:butt;stroke-width:34}
		.st3 {fill:url(#grad0-10);stroke:none;stroke-linecap:butt;stroke-width:34}
		.st4 {fill:none;fill-rule:evenodd;font-size:12px;overflow:visible;stroke-linecap:square;stroke-miterlimit:3}
	]]>
	</style>

	<defs id="Patterns_And_Gradients">
		<linearGradient id="grad0-10" x1="0" y1="0" x2="1" y2="0" gradientTransform="rotate(-90 0.5 0.5)">
			<stop offset="0" stop-color="#59285f" stop-opacity="1"/>
			<stop offset="1" stop-color="#a33a85" stop-opacity="1"/>
		</linearGradient>
	</defs>
	<g>
		<title>Page-1</title>
		<g id="group9779-1" transform="translate(34,-34.0157)">
			<title>App Service Logs</title>
			<g id="group9780-2">
				<title>Sheet.9780</title>
				<g id="shape9781-3" transform="translate(0,-0.280315)">
					<title>Sheet.9781</title>
					<path d="M0.07 73.68 L4.18 68.99 A1.99744 1.95591 0 0 1 5.71 68.31 L45.17 68.31 A2.75331 2.69606 0 0 1 48.18
								 70.73 A2.62144 2.56693 0 0 1 48.18 71.07 L48.18 119.33 A1.92989 1.88976 0 0 1 47.5 120.76 L43.08
								 124.72 L2.75 124.72 L0 123.63 L0.07 73.68 Z" class="st1"/>
				</g>
				<g id="shape9782-5" transform="translate(3.39661,-2.3622)">
					<title>Sheet.9782</title>
					<path d="M0 75.75 L2.52 72.93 A1.70796 1.67244 0 0 1 3.71 72.33 L40.72 72.33 A1.76585 1.72913 0 0 1 42.49 74.07
								 L42.49 119.93 A1.7562 1.71969 0 0 1 41.91 121.23 L37.97 124.72 L0 75.75 Z" class="st2"/>
				</g>
				<g id="shape9783-7" transform="translate(0.0900617,0)">
					<title>Sheet.9783</title>
					<path d="M41 73.33 L0.21 73.33 a0.205855 0.201575 -180 0 0 -0.205855 0.201575 L0 123.46 A1.32841 1.30079 -180
								 0 0 1.33 124.72 L41 124.72 A1.2866 1.25984 -180 0 0 42.29 123.46 L42.29 74.64 A1.32841 1.30079 -180
								 0 0 41 73.33 Z" class="st3"/>
				</g>
				<g id="shape9784-11" transform="translate(6.24945,-13.2346)">
					<title>Sheet.9784</title>
					<path d="M27.05 100.27 A15.5935 15.2693 -180 0 0 5.21 97.33 L5.02 97.51 A15.5871 15.263 -180 0 0 14.72 124.72
								 A15.4391 15.1181 -180 0 0 24.24 121.52 A15.6611 15.3354 -180 0 0 27.05 100.27 ZM14.6 96.2 A13.7473
								 13.4614 0 0 1 16.48 96.33 A13.4514 13.1717 0 0 1 23.91 99.85 C23.69 99.67 23.47 99.47 23.23 99.31
								 A29.032 28.4283 -180 0 0 15.19 101.03 A15.021 14.7087 -180 0 0 13.64 101.79 A37.5493 36.7685 0 0
								 1 10.27 96.9 A13.461 13.1811 0 0 1 14.6 96.2 ZM4.09 117.7 C4.05 117.66 4.01 117.63 3.99 117.59 A13.5704
								 13.2882 0 0 1 4.02 101.42 A38.511 37.7102 -180 0 0 4.91 105.57 A4.36156 4.27087 -180 0 0 5.37 112.81
								 A24.9793 24.4598 -180 0 0 4.09 117.7 ZM6.44 98.9 A13.6218 13.3386 0 0 1 8.95 97.47 A41.0295 40.1764
								 -180 0 0 12.4 102.55 A15.0853 14.7717 -180 0 0 9.08 105.07 A4.36799 4.27717 -180 0 0 7.48 104.75
								 A4.02061 3.93701 -180 0 0 6.95 104.8 A41.3994 40.5386 0 0 1 5.75 99.57 C5.98 99.34 6.18 99.1 6.44
								 98.9 ZM22.99 119.94 A13.5093 13.2283 0 0 1 6.01 119.63 A35.2849 34.5512 0 0 1 7.81 113.33 A4.38407
								 4.29291 -180 0 0 8.5 113.23 C9.14 113.88 9.83 114.51 10.55 115.1 A12.5733 12.3118 -180 0 0 13.46
								 116.83 A2.93022 2.86929 -180 0 0 18.67 118.48 A25.8445 25.3071 -180 0 0 24.22 118.8 A12.5926 12.3307
								 0 0 1 22.99 119.94 ZM25.86 116.82 A14.3037 14.0063 0 0 1 23.36 116.9 A20.5662 20.1386 0 0 1 19.39
								 116.5 A2.97525 2.91339 -180 0 0 14.27 114.55 A14.1911 13.8961 0 0 1 10.72 111.91 A4.34869 4.25827
								 -180 0 0 11.13 106.67 A13.8309 13.5433 0 0 1 13.94 104.51 A34.677 33.9559 -180 0 0 19.63 109.33
								 A2.99455 2.93228 -180 0 0 19.5 109.96 A3.0814 3.01732 -180 0 0 22.58 112.97 A3.04601 2.98268 -180
								 0 0 24.6 112.2 C24.75 112.27 24.88 112.32 25.12 112.44 C25.12 112.44 25.53 112.64 25.74 112.76 C26.19
								 113.05 27.4 113.63 27.49 113.67 A13.4192 13.1402 0 0 1 25.86 116.82 ZM27.13 111.68 A9.24097 9.04882
								 -180 0 0 26.51 111.36 L25.89 111.05 L25.48 110.8 A3.03958 2.97638 -180 0 0 20.49 107.76 A43.1009
								 42.2047 0 0 1 15.64 103.6 A24.3553 23.8488 0 0 1 25.41 101.42 L25.44 101.46 A13.5093 13.2283 0 0
								 1 27.85 112.08 C27.66 111.95 27.27 111.78 27.13 111.68 Z" class="st2"/>
				</g>
			</g>
		</g>
	</g>
</svg>
